X: 460
U:~=!turn!
M:C|
L:1/8
K:C
|: G | EC(EG) AF(Ac) | ECFE DG,G,F | [1 EC(EG) AFAc | BdGf ecc :| [2 EGFA G_BAc | Bagf ecc |]


